svgs/regular/album-collection-circle-user.svg

<svg xmlns="http://www.w3.org/2000/svg" viewBox="0 0 640 512"><!--! Font Awesome Pro 6.2.0 by @fontawesome - https://fontawesome.com License - https://fontawesome.com/license (Commercial License) Copyright 2022 Fonticons, Inc. --><path d="M456 0C469.3 0 480 10.75 480 24C480 37.25 469.3 48 456 48H56C42.75 48 32 37.25 32 24C32 10.75 42.75 0 56 0H456zM6.155 232.3C1.111 194 30.95 160 69.61 160H442.4C466.3 160 486.8 173 497.8 192L496 192C469.8 192 444.9 197.7 422.6 208H69.61C59.94 208 52.48 216.5 53.74 226.1L83.22 450.1C84.27 458 91.05 464 99.08 464H348.5C360.7 482.8 376.5 499.1 394.8 512H99.08C66.96 512 39.82 488.2 35.63 456.3L6.155 232.3zM260 232C297.8 232 332.2 241.9 358.4 258.3C334.4 288.4 320 326.5 320 368C320 388.9 323.6 408.9 330.3 427.5C309.4 435.5 285.5 440 259.1 440C178.3 440 111.1 393.4 111.1 336C111.1 278.6 178.3 232 259.1 232H260zM256 368C273.7 368 288 357.3 288 344C288 330.7 273.7 320 256 320C238.3 320 224 330.7 224 344C224 357.3 238.3 368 256 368zM16 104C16 90.75 26.75 80 40 80H472C485.3 80 496 90.75 496 104C496 117.3 485.3 128 472 128H40C26.75 128 16 117.3 16 104zM640 368C640 447.5 575.5 512 496 512C416.5 512 352 447.5 352 368C352 288.5 416.5 224 496 224C575.5 224 640 288.5 640 368zM528.6 416H463.4C442.4 416 424.5 429.7 418.3 448.7C438.5 468.1 465.8 480 496 480C526.2 480 553.5 468.1 573.7 448.7C567.5 429.7 549.6 416 528.6 416zM496 288C469.5 288 448 309.5 448 336C448 362.5 469.5 384 496 384C522.5 384 544 362.5 544 336C544 309.5 522.5 288 496 288z"/></svg>

<svg xmlns="http://www.w3.org/2000/svg" viewBox="0 0 640 512"><!--! Font Awesome Pro 6.3.0 by @fontawesome - https://fontawesome.com License - https://fontawesome.com/license (Commercial License) Copyright 2023 Fonticons, Inc. --><path d="M56 0H456c13.3 0 24 10.7 24 24s-10.7 24-24 24H56C42.7 48 32 37.3 32 24S42.7 0 56 0zM6.2 232.3C1.1 194 30.9 160 69.6 160H442.4c23.9 0 44.4 13 55.4 32l-1.8 0c-26.2 0-51.1 5.7-73.4 16H69.6c-9.7 0-17.1 8.5-15.9 18.1l29.5 224c1 8 7.8 13.9 15.9 13.9H348.5c12.3 18.8 28 35.1 46.3 48H99.1c-32.1 0-59.3-23.8-63.5-55.7L6.2 232.3zM256 232c38.9 0 74.2 11.1 100.1 29.2C333.4 290.8 320 327.8 320 368c0 20.1 3.4 39.4 9.6 57.4C308 434.7 282.9 440 256 440c-79.5 0-144-46.6-144-104s64.5-104 144-104zM16 104c0-13.3 10.7-24 24-24H472c13.3 0 24 10.7 24 24s-10.7 24-24 24H40c-13.3 0-24-10.7-24-24zM256 368c17.7 0 32-10.7 32-24s-14.3-24-32-24s-32 10.7-32 24s14.3 24 32 24zm96 0a144 144 0 1 1 288 0 144 144 0 1 1 -288 0zm221.7 80.7c-6.2-19-24-32.7-45.1-32.7H463.4c-21 0-38.9 13.7-45.1 32.7C438.5 468.1 465.8 480 496 480s57.5-11.9 77.7-31.3zM544 336a48 48 0 1 0 -96 0 48 48 0 1 0 96 0z"/></svg>
